img/instagram.svg

<?xml version="1.0" encoding="UTF-8"?>
<svg width="20px" height="20px" viewBox="0 0 20 20" version="1.1" xmlns="http://www.w3.org/2000/svg" xmlns:xlink="http://www.w3.org/1999/xlink">
    <!-- Generator: Sketch 57.1 (83088) - https://sketch.com -->
    <title>instagram</title>
    <desc>Created with Sketch.</desc>
    <g id="Pages" stroke="none" stroke-width="1" fill="none" fill-rule="evenodd">
        <g id="Shop" transform="translate(-640.000000, -1091.000000)" fill="#FFFFFF">
            <g id="footer" transform="translate(0.000000, 984.000000)">
                <g id="instagram" transform="translate(640.000000, 107.000000)">
                    <g id="Shape">
                        <path d="M18,0 L2,0 C0.8954305,0 0,0.8954305 0,2 L0,18 C0,19.1045695 0.8954305,20 2,20 L18,20 C19.1045695,20 20,19.1045695 20,18 L20,2 C20,0.8954305 19.1045695,0 18,0 Z M10,6 C12.209139,6 14,7.790861 14,10 C14,12.209139 12.209139,14 10,14 C7.790861,14 6,12.209139 6,10 C6,7.790861 7.790861,6 10,6 Z M2.5,18 C2.36484852,18.008941 2.23241012,17.9591407 2.1366347,17.8633653 C2.04085927,17.7675899 1.99105903,17.6351515 2,17.5 L2,9 L4.1,9 C4.01731462,9.32653936 3.98361321,9.66355343 4,10 C3.99999997,12.1435936 5.1435935,14.1243557 6.99999997,15.1961525 C8.85640645,16.2679493 11.1435936,16.2679493 13,15.1961525 C14.8564065,14.1243557 16,12.1435936 16,10 C16.0163868,9.66355343 15.9826854,9.32653936 15.9,9 L18,9 L18,17.5 C18.008941,17.6351515 17.9591407,17.7675899 17.8633653,17.8633653 C17.7675899,17.9591407 17.6351515,18.008941 17.5,18 L2.5,18 Z M18,4.5 C18.008941,4.63515148 17.9591407,4.76758988 17.8633653,4.8633653 C17.7675899,4.95914073 17.6351515,5.00894097 17.5,5 L15.5,5 C15.3648485,5.00894097 15.2324101,4.95914073 15.1366347,4.8633653 C15.0408593,4.76758988 14.991059,4.63515148 15,4.5 L15,2.5 C14.991059,2.36484852 15.0408593,2.23241012 15.1366347,2.1366347 C15.2324101,2.04085927 15.3648485,1.99105903 15.5,2 L17.5,2 C17.6351515,1.99105903 17.7675899,2.04085927 17.8633653,2.1366347 C17.9591407,2.23241012 18.008941,2.36484852 18,2.5 L18,4.5 Z" fill-rule="nonzero"></path>
                    </g>
                </g>
            </g>
        </g>
    </g>
</svg>

<svg width="20" height="20" xmlns="http://www.w3.org/2000/svg"><path d="M18 0H2a2 2 0 0 0-2 2v16a2 2 0 0 0 2 2h16a2 2 0 0 0 2-2V2a2 2 0 0 0-2-2zm-8 6a4 4 0 1 1 0 8 4 4 0 0 1 0-8zM2.5 18a.47.47 0 0 1-.5-.5V9h2.1a3.4 3.4 0 0 0-.1 1 6 6 0 1 0 12 0 3.4 3.4 0 0 0-.1-1H18v8.5a.47.47 0 0 1-.5.5h-15zM18 4.5a.47.47 0 0 1-.5.5h-2a.47.47 0 0 1-.5-.5v-2a.47.47 0 0 1 .5-.5h2a.47.47 0 0 1 .5.5v2z" fill-rule="nonzero" fill="#FFF"/></svg>
